public/assets/images/about-shape-2.svg

<svg width="371" height="220" viewBox="0 0 371 220" fill="none" xmlns="http://www.w3.org/2000/svg">
<g filter="url(#filter0_d_59_13)">
<path d="M60 70C60 42.3858 82.3858 20 110 20H301C306.523 20 311 24.4772 311 30V70C311 97.6142 288.614 120 261 120H70C64.4772 120 60 115.523 60 110V70Z" fill="white" shape-rendering="crispEdges"/>
<circle cx="119" cy="70" r="30" fill="#FDEDEF"/>
<path d="M126.703 61.8438C126.435 65.4579 123.695 68.4062 120.687 68.4062C117.68 68.4062 114.935 65.4586 114.672 61.8438C114.398 58.084 117.064 55.2812 120.687 55.2812C124.311 55.2812 126.977 58.1523 126.703 61.8438Z" stroke="#EE4A62" stroke-width="2" stroke-linecap="round" stroke-linejoin="round"/>
<path d="M120.688 72.7812C114.74 72.7812 108.704 76.0625 107.587 82.2559C107.45 83.0023 107.875 83.7188 108.657 83.7188H132.719C133.501 83.7188 133.923 83.0023 133.789 82.2559C132.671 76.0625 126.635 72.7812 120.688 72.7812Z" stroke="#EE4A62" stroke-width="2" stroke-miterlimit="10"/>
<path d="M107.016 64.0312V71.6875M110.844 67.8594H103.188" stroke="#EE4A62" stroke-width="2" stroke-linecap="round" stroke-linejoin="round"/>
<path d="M164.044 64V62.428C165.708 61.14 167.152 59.984 168.376 58.96C169.608 57.936 170.648 57.016 171.496 56.2C172.344 55.384 173.024 54.644 173.536 53.98C174.056 53.316 174.432 52.704 174.664 52.144C174.896 51.576 175.012 51.032 175.012 50.512C175.012 49.808 174.844 49.164 174.508 48.58C174.172 47.996 173.716 47.532 173.14 47.188C172.572 46.844 171.928 46.672 171.208 46.672C170.512 46.672 169.876 46.844 169.3 47.188C168.724 47.532 168.228 48.028 167.812 48.676C167.404 49.324 167.108 50.096 166.924 50.992L164.236 49.816C164.428 48.92 164.736 48.104 165.16 47.368C165.584 46.632 166.108 46 166.732 45.472C167.356 44.944 168.06 44.54 168.844 44.26C169.628 43.972 170.476 43.828 171.388 43.828C172.732 43.828 173.932 44.116 174.988 44.692C176.052 45.26 176.888 46.044 177.496 47.044C178.104 48.036 178.408 49.164 178.408 50.428C178.408 51.068 178.316 51.696 178.132 52.312C177.956 52.928 177.664 53.56 177.256 54.208C176.856 54.856 176.324 55.532 175.66 56.236C175.004 56.94 174.2 57.7 173.248 58.516C172.304 59.324 171.192 60.208 169.912 61.168H178.768V64H164.044ZM190.122 64.384C188.506 64.384 187.086 63.956 185.862 63.1C184.646 62.236 183.698 61.032 183.018 59.488C182.346 57.944 182.01 56.152 182.01 54.112C182.01 52.064 182.346 50.272 183.018 48.736C183.698 47.192 184.646 45.992 185.862 45.136C187.086 44.272 188.506 43.84 190.122 43.84C191.746 43.84 193.166 44.272 194.382 45.136C195.598 45.992 196.542 47.192 197.214 48.736C197.894 50.272 198.234 52.064 198.234 54.112C198.234 56.152 197.894 57.944 197.214 59.488C196.542 61.032 195.598 62.236 194.382 63.1C193.166 63.956 191.746 64.384 190.122 64.384ZM190.122 61.6C191.098 61.6 191.942 61.296 192.654 60.688C193.374 60.08 193.93 59.216 194.322 58.096C194.722 56.968 194.922 55.64 194.922 54.112C194.922 52.576 194.722 51.248 194.322 50.128C193.93 49.008 193.374 48.144 192.654 47.536C191.942 46.928 191.098 46.624 190.122 46.624C189.154 46.624 188.31 46.928 187.59 47.536C186.87 48.144 186.31 49.008 185.91 50.128C185.518 51.248 185.322 52.576 185.322 54.112C185.322 55.64 185.518 56.968 185.91 58.096C186.31 59.216 186.87 60.08 187.59 60.688C188.31 61.296 189.154 61.6 190.122 61.6ZM202.712 64V44.2H205.856V52.756L213.704 44.2H217.568L208.7 53.824L218.696 64H214.34L205.856 55.408V64H202.712ZM225.917 60.208V55.348H221.057V52.756H225.917V47.896H228.497V52.756H233.369V55.348H228.497V60.208H225.917Z" fill="#EF5269"/>
<path d="M165.52 77.655V81.15H169.33V82.275H165.52V85.875H169.78V87H164.155V76.53H169.78V77.655H165.52ZM175.85 78.63C176.85 78.63 177.66 78.935 178.28 79.545C178.9 80.145 179.21 81.015 179.21 82.155V87H177.86V82.35C177.86 81.53 177.655 80.905 177.245 80.475C176.835 80.035 176.275 79.815 175.565 79.815C174.845 79.815 174.27 80.04 173.84 80.49C173.42 80.94 173.21 81.595 173.21 82.455V87H171.845V78.78H173.21V79.95C173.48 79.53 173.845 79.205 174.305 78.975C174.775 78.745 175.29 78.63 175.85 78.63ZM182.805 80.115C183.045 79.645 183.385 79.28 183.825 79.02C184.275 78.76 184.82 78.63 185.46 78.63V80.04H185.1C183.57 80.04 182.805 80.87 182.805 82.53V87H181.44V78.78H182.805V80.115ZM190.621 87.135C189.851 87.135 189.151 86.96 188.521 86.61C187.901 86.26 187.411 85.765 187.051 85.125C186.701 84.475 186.526 83.725 186.526 82.875C186.526 82.035 186.706 81.295 187.066 80.655C187.436 80.005 187.936 79.51 188.566 79.17C189.196 78.82 189.901 78.645 190.681 78.645C191.461 78.645 192.166 78.82 192.796 79.17C193.426 79.51 193.921 80 194.281 80.64C194.651 81.28 194.836 82.025 194.836 82.875C194.836 83.725 194.646 84.475 194.266 85.125C193.896 85.765 193.391 86.26 192.751 86.61C192.111 86.96 191.401 87.135 190.621 87.135ZM190.621 85.935C191.111 85.935 191.571 85.82 192.001 85.59C192.431 85.36 192.776 85.015 193.036 84.555C193.306 84.095 193.441 83.535 193.441 82.875C193.441 82.215 193.311 81.655 193.051 81.195C192.791 80.735 192.451 80.395 192.031 80.175C191.611 79.945 191.156 79.83 190.666 79.83C190.166 79.83 189.706 79.945 189.286 80.175C188.876 80.395 188.546 80.735 188.296 81.195C188.046 81.655 187.921 82.215 187.921 82.875C187.921 83.545 188.041 84.11 188.281 84.57C188.531 85.03 188.861 85.375 189.271 85.605C189.681 85.825 190.131 85.935 190.621 85.935ZM197.996 75.9V87H196.631V75.9H197.996ZM201.687 75.9V87H200.322V75.9H201.687ZM211.513 82.575C211.513 82.835 211.498 83.11 211.468 83.4H204.898C204.948 84.21 205.223 84.845 205.723 85.305C206.233 85.755 206.848 85.98 207.568 85.98C208.158 85.98 208.648 85.845 209.038 85.575C209.438 85.295 209.718 84.925 209.878 84.465H211.348C211.128 85.255 210.688 85.9 210.028 86.4C209.368 86.89 208.548 87.135 207.568 87.135C206.788 87.135 206.088 86.96 205.468 86.61C204.858 86.26 204.378 85.765 204.028 85.125C203.678 84.475 203.503 83.725 203.503 82.875C203.503 82.025 203.673 81.28 204.013 80.64C204.353 80 204.828 79.51 205.438 79.17C206.058 78.82 206.768 78.645 207.568 78.645C208.348 78.645 209.038 78.815 209.638 79.155C210.238 79.495 210.698 79.965 211.018 80.565C211.348 81.155 211.513 81.825 211.513 82.575ZM210.103 82.29C210.103 81.77 209.988 81.325 209.758 80.955C209.528 80.575 209.213 80.29 208.813 80.1C208.423 79.9 207.988 79.8 207.508 79.8C206.818 79.8 206.228 80.02 205.738 80.46C205.258 80.9 204.983 81.51 204.913 82.29H210.103ZM212.805 82.86C212.805 82.02 212.975 81.285 213.315 80.655C213.655 80.015 214.12 79.52 214.71 79.17C215.31 78.82 215.98 78.645 216.72 78.645C217.36 78.645 217.955 78.795 218.505 79.095C219.055 79.385 219.475 79.77 219.765 80.25V75.9H221.145V87H219.765V85.455C219.495 85.945 219.095 86.35 218.565 86.67C218.035 86.98 217.415 87.135 216.705 87.135C215.975 87.135 215.31 86.955 214.71 86.595C214.12 86.235 213.655 85.73 213.315 85.08C212.975 84.43 212.805 83.69 212.805 82.86ZM219.765 82.875C219.765 82.255 219.64 81.715 219.39 81.255C219.14 80.795 218.8 80.445 218.37 80.205C217.95 79.955 217.485 79.83 216.975 79.83C216.465 79.83 216 79.95 215.58 80.19C215.16 80.43 214.825 80.78 214.575 81.24C214.325 81.7 214.2 82.24 214.2 82.86C214.2 83.49 214.325 84.04 214.575 84.51C214.825 84.97 215.16 85.325 215.58 85.575C216 85.815 216.465 85.935 216.975 85.935C217.485 85.935 217.95 85.815 218.37 85.575C218.8 85.325 219.14 84.97 219.39 84.51C219.64 84.04 219.765 83.495 219.765 82.875ZM228.816 85.89H232.476V87H227.451V76.545H228.816V85.89ZM241.426 82.575C241.426 82.835 241.411 83.11 241.381 83.4H234.811C234.861 84.21 235.136 84.845 235.636 85.305C236.146 85.755 236.761 85.98 237.481 85.98C238.071 85.98 238.561 85.845 238.951 85.575C239.351 85.295 239.631 84.925 239.791 84.465H241.261C241.041 85.255 240.601 85.9 239.941 86.4C239.281 86.89 238.461 87.135 237.481 87.135C236.701 87.135 236.001 86.96 235.381 86.61C234.771 86.26 234.291 85.765 233.941 85.125C233.591 84.475 233.416 83.725 233.416 82.875C233.416 82.025 233.586 81.28 233.926 80.64C234.266 80 234.741 79.51 235.351 79.17C235.971 78.82 236.681 78.645 237.481 78.645C238.261 78.645 238.951 78.815 239.551 79.155C240.151 79.495 240.611 79.965 240.931 80.565C241.261 81.155 241.426 81.825 241.426 82.575ZM240.016 82.29C240.016 81.77 239.901 81.325 239.671 80.955C239.441 80.575 239.126 80.29 238.726 80.1C238.336 79.9 237.901 79.8 237.421 79.8C236.731 79.8 236.141 80.02 235.651 80.46C235.171 80.9 234.896 81.51 234.826 82.29H240.016ZM242.717 82.86C242.717 82.02 242.887 81.285 243.227 80.655C243.567 80.015 244.032 79.52 244.622 79.17C245.222 78.82 245.887 78.645 246.617 78.645C247.337 78.645 247.962 78.8 248.492 79.11C249.022 79.42 249.417 79.81 249.677 80.28V78.78H251.057V87H249.677V85.47C249.407 85.95 249.002 86.35 248.462 86.67C247.932 86.98 247.312 87.135 246.602 87.135C245.872 87.135 245.212 86.955 244.622 86.595C244.032 86.235 243.567 85.73 243.227 85.08C242.887 84.43 242.717 83.69 242.717 82.86ZM249.677 82.875C249.677 82.255 249.552 81.715 249.302 81.255C249.052 80.795 248.712 80.445 248.282 80.205C247.862 79.955 247.397 79.83 246.887 79.83C246.377 79.83 245.912 79.95 245.492 80.19C245.072 80.43 244.737 80.78 244.487 81.24C244.237 81.7 244.112 82.24 244.112 82.86C244.112 83.49 244.237 84.04 244.487 84.51C244.737 84.97 245.072 85.325 245.492 85.575C245.912 85.815 246.377 85.935 246.887 85.935C247.397 85.935 247.862 85.815 248.282 85.575C248.712 85.325 249.052 84.97 249.302 84.51C249.552 84.04 249.677 83.495 249.677 82.875ZM254.729 80.115C254.969 79.645 255.309 79.28 255.749 79.02C256.199 78.76 256.744 78.63 257.384 78.63V80.04H257.024C255.494 80.04 254.729 80.87 254.729 82.53V87H253.364V78.78H254.729V80.115ZM262.965 78.63C263.965 78.63 264.775 78.935 265.395 79.545C266.015 80.145 266.325 81.015 266.325 82.155V87H264.975V82.35C264.975 81.53 264.77 80.905 264.36 80.475C263.95 80.035 263.39 79.815 262.68 79.815C261.96 79.815 261.385 80.04 260.955 80.49C260.535 80.94 260.325 81.595 260.325 82.455V87H258.96V78.78H260.325V79.95C260.595 79.53 260.96 79.205 261.42 78.975C261.89 78.745 262.405 78.63 262.965 78.63ZM276.054 82.575C276.054 82.835 276.039 83.11 276.009 83.4H269.439C269.489 84.21 269.764 84.845 270.264 85.305C270.774 85.755 271.389 85.98 272.109 85.98C272.699 85.98 273.189 85.845 273.579 85.575C273.979 85.295 274.259 84.925 274.419 84.465H275.889C275.669 85.255 275.229 85.9 274.569 86.4C273.909 86.89 273.089 87.135 272.109 87.135C271.329 87.135 270.629 86.96 270.009 86.61C269.399 86.26 268.919 85.765 268.569 85.125C268.219 84.475 268.044 83.725 268.044 82.875C268.044 82.025 268.214 81.28 268.554 80.64C268.894 80 269.369 79.51 269.979 79.17C270.599 78.82 271.309 78.645 272.109 78.645C272.889 78.645 273.579 78.815 274.179 79.155C274.779 79.495 275.239 79.965 275.559 80.565C275.889 81.155 276.054 81.825 276.054 82.575ZM274.644 82.29C274.644 81.77 274.529 81.325 274.299 80.955C274.069 80.575 273.754 80.29 273.354 80.1C272.964 79.9 272.529 79.8 272.049 79.8C271.359 79.8 270.769 80.02 270.279 80.46C269.799 80.9 269.524 81.51 269.454 82.29H274.644ZM279.221 80.115C279.461 79.645 279.801 79.28 280.241 79.02C280.691 78.76 281.236 78.63 281.876 78.63V80.04H281.516C279.986 80.04 279.221 80.87 279.221 82.53V87H277.856V78.78H279.221V80.115ZM286.362 87.135C285.732 87.135 285.167 87.03 284.667 86.82C284.167 86.6 283.772 86.3 283.482 85.92C283.192 85.53 283.032 85.085 283.002 84.585H284.412C284.452 84.995 284.642 85.33 284.982 85.59C285.332 85.85 285.787 85.98 286.347 85.98C286.867 85.98 287.277 85.865 287.577 85.635C287.877 85.405 288.027 85.115 288.027 84.765C288.027 84.405 287.867 84.14 287.547 83.97C287.227 83.79 286.732 83.615 286.062 83.445C285.452 83.285 284.952 83.125 284.562 82.965C284.182 82.795 283.852 82.55 283.572 82.23C283.302 81.9 283.167 81.47 283.167 80.94C283.167 80.52 283.292 80.135 283.542 79.785C283.792 79.435 284.147 79.16 284.607 78.96C285.067 78.75 285.592 78.645 286.182 78.645C287.092 78.645 287.827 78.875 288.387 79.335C288.947 79.795 289.247 80.425 289.287 81.225H287.922C287.892 80.795 287.717 80.45 287.397 80.19C287.087 79.93 286.667 79.8 286.137 79.8C285.647 79.8 285.257 79.905 284.967 80.115C284.677 80.325 284.532 80.6 284.532 80.94C284.532 81.21 284.617 81.435 284.787 81.615C284.967 81.785 285.187 81.925 285.447 82.035C285.717 82.135 286.087 82.25 286.557 82.38C287.147 82.54 287.627 82.7 287.997 82.86C288.367 83.01 288.682 83.24 288.942 83.55C289.212 83.86 289.352 84.265 289.362 84.765C289.362 85.215 289.237 85.62 288.987 85.98C288.737 86.34 288.382 86.625 287.922 86.835C287.472 87.035 286.952 87.135 286.362 87.135Z" fill="#525252"/>
</g>
<defs>
<filter id="filter0_d_59_13" x="0" y="0" width="371" height="220" filterUnits="userSpaceOnUse" color-interpolation-filters="sRGB">
<feFlood flood-opacity="0" result="BackgroundImageFix"/>
<feColorMatrix in="SourceAlpha" type="matrix" values="0 0 0 0 0 0 0 0 0 0 0 0 0 0 0 0 0 0 127 0" result="hardAlpha"/>
<feOffset dy="40"/>
<feGaussianBlur stdDeviation="30"/>
<feComposite in2="hardAlpha" operator="out"/>
<feColorMatrix type="matrix" values="0 0 0 0 0.0588235 0 0 0 0 0.0431373 0 0 0 0 0.172549 0 0 0 0.15 0"/>
<feBlend mode="normal" in2="BackgroundImageFix" result="effect1_dropShadow_59_13"/>
<feBlend mode="normal" in="SourceGraphic" in2="effect1_dropShadow_59_13" result="shape"/>
</filter>
</defs>
</svg>

<?xml version="1.0" encoding="utf-8"?>
<!-- Generator: Adobe Illustrator 24.0.0, SVG Export Plug-In . SVG Version: 6.00 Build 0)  -->
<svg version="1.1" id="Layer_1" xmlns="http://www.w3.org/2000/svg" xmlns:xlink="http://www.w3.org/1999/xlink" x="0px" y="0px"
	 viewBox="0 0 371 220" style="enable-background:new 0 0 371 220;" xml:space="preserve">
<style type="text/css">
	.st0{fill:#FFFFFF;}
	.st1{fill:#FDEDEF;}
	.st2{fill:none;stroke:#EE4A62;stroke-width:2;stroke-linecap:round;stroke-linejoin:round;}
	.st3{fill:none;stroke:#EE4A62;stroke-width:2;stroke-miterlimit:10;}
	.st4{fill:#525252;}
	.st5{fill:#EF5269;}
</style>
<g>
	<path shape-rendering="crispEdges" class="st0" d="M60,70c0-27.6,22.4-50,50-50h191c5.5,0,10,4.5,10,10v40c0,27.6-22.4,50-50,50H70
		c-5.5,0-10-4.5-10-10V70z"/>
	<circle class="st1" cx="119" cy="70" r="30"/>
	<path class="st2" d="M126.7,61.8c-0.3,3.6-3,6.6-6,6.6c-3,0-5.8-2.9-6-6.6c-0.3-3.8,2.4-6.6,6-6.6C124.3,55.3,127,58.2,126.7,61.8z
		"/>
	<path class="st3" d="M120.7,72.8c-5.9,0-12,3.3-13.1,9.5c-0.1,0.7,0.3,1.5,1.1,1.5h24.1c0.8,0,1.2-0.7,1.1-1.5
		C132.7,76.1,126.6,72.8,120.7,72.8z"/>
	<path class="st2" d="M107,64v7.7 M110.8,67.9h-7.7"/>
	<path class="st4" d="M165.5,77.7v3.5h3.8v1.1h-3.8v3.6h4.3V87h-5.6V76.5h5.6v1.1H165.5z M175.9,78.6c1,0,1.8,0.3,2.4,0.9
		c0.6,0.6,0.9,1.5,0.9,2.6V87h-1.4v-4.7c0-0.8-0.2-1.4-0.6-1.9c-0.4-0.4-1-0.7-1.7-0.7c-0.7,0-1.3,0.2-1.7,0.7
		c-0.4,0.5-0.6,1.1-0.6,2V87h-1.4v-8.2h1.4v1.2c0.3-0.4,0.6-0.7,1.1-1C174.8,78.7,175.3,78.6,175.9,78.6z M182.8,80.1
		c0.2-0.5,0.6-0.8,1-1.1c0.4-0.3,1-0.4,1.6-0.4V80h-0.4c-1.5,0-2.3,0.8-2.3,2.5V87h-1.4v-8.2h1.4V80.1z M190.6,87.1
		c-0.8,0-1.5-0.2-2.1-0.5c-0.6-0.3-1.1-0.8-1.5-1.5c-0.3-0.7-0.5-1.4-0.5-2.3c0-0.8,0.2-1.6,0.5-2.2c0.4-0.7,0.9-1.1,1.5-1.5
		c0.6-0.3,1.3-0.5,2.1-0.5s1.5,0.2,2.1,0.5c0.6,0.3,1.1,0.8,1.5,1.5c0.4,0.6,0.6,1.4,0.6,2.2s-0.2,1.6-0.6,2.3
		c-0.4,0.6-0.9,1.1-1.5,1.5C192.1,87,191.4,87.1,190.6,87.1z M190.6,85.9c0.5,0,0.9-0.1,1.4-0.3c0.4-0.2,0.8-0.6,1-1
		c0.3-0.5,0.4-1,0.4-1.7s-0.1-1.2-0.4-1.7c-0.3-0.5-0.6-0.8-1-1c-0.4-0.2-0.9-0.3-1.4-0.3c-0.5,0-1,0.1-1.4,0.3
		c-0.4,0.2-0.7,0.6-1,1s-0.4,1-0.4,1.7c0,0.7,0.1,1.2,0.4,1.7c0.3,0.5,0.6,0.8,1,1C189.7,85.8,190.1,85.9,190.6,85.9z M198,75.9V87
		h-1.4V75.9H198z M201.7,75.9V87h-1.4V75.9H201.7z M211.5,82.6c0,0.3,0,0.5,0,0.8h-6.6c0.1,0.8,0.3,1.4,0.8,1.9
		c0.5,0.4,1.1,0.7,1.8,0.7c0.6,0,1.1-0.1,1.5-0.4c0.4-0.3,0.7-0.6,0.8-1.1h1.5c-0.2,0.8-0.7,1.4-1.3,1.9c-0.7,0.5-1.5,0.7-2.5,0.7
		c-0.8,0-1.5-0.2-2.1-0.5c-0.6-0.3-1.1-0.8-1.4-1.5c-0.4-0.7-0.5-1.4-0.5-2.3s0.2-1.6,0.5-2.2s0.8-1.1,1.4-1.5
		c0.6-0.3,1.3-0.5,2.1-0.5c0.8,0,1.5,0.2,2.1,0.5c0.6,0.3,1.1,0.8,1.4,1.4C211.3,81.2,211.5,81.8,211.5,82.6z M210.1,82.3
		c0-0.5-0.1-1-0.3-1.3c-0.2-0.4-0.5-0.7-0.9-0.9c-0.4-0.2-0.8-0.3-1.3-0.3c-0.7,0-1.3,0.2-1.8,0.7c-0.5,0.4-0.8,1.1-0.8,1.8H210.1z
		 M212.8,82.9c0-0.8,0.2-1.6,0.5-2.2c0.3-0.6,0.8-1.1,1.4-1.5c0.6-0.3,1.3-0.5,2-0.5c0.6,0,1.2,0.2,1.8,0.5c0.5,0.3,1,0.7,1.3,1.2
		v-4.3h1.4V87h-1.4v-1.5c-0.3,0.5-0.7,0.9-1.2,1.2c-0.5,0.3-1.2,0.5-1.9,0.5c-0.7,0-1.4-0.2-2-0.5c-0.6-0.4-1.1-0.9-1.4-1.5
		S212.8,83.7,212.8,82.9z M219.8,82.9c0-0.6-0.1-1.2-0.4-1.6s-0.6-0.8-1-1c-0.4-0.3-0.9-0.4-1.4-0.4c-0.5,0-1,0.1-1.4,0.4
		c-0.4,0.2-0.8,0.6-1,1s-0.4,1-0.4,1.6c0,0.6,0.1,1.2,0.4,1.7c0.3,0.5,0.6,0.8,1,1.1c0.4,0.2,0.9,0.4,1.4,0.4c0.5,0,1-0.1,1.4-0.4
		c0.4-0.3,0.8-0.6,1-1.1C219.6,84,219.8,83.5,219.8,82.9z M228.8,85.9h3.7V87h-5V76.5h1.4V85.9z M241.4,82.6c0,0.3,0,0.5,0,0.8h-6.6
		c0,0.8,0.3,1.4,0.8,1.9c0.5,0.4,1.1,0.7,1.8,0.7c0.6,0,1.1-0.1,1.5-0.4c0.4-0.3,0.7-0.6,0.8-1.1h1.5c-0.2,0.8-0.7,1.4-1.3,1.9
		c-0.7,0.5-1.5,0.7-2.5,0.7c-0.8,0-1.5-0.2-2.1-0.5c-0.6-0.3-1.1-0.8-1.4-1.5c-0.3-0.7-0.5-1.4-0.5-2.3s0.2-1.6,0.5-2.2
		c0.3-0.6,0.8-1.1,1.4-1.5c0.6-0.3,1.3-0.5,2.1-0.5c0.8,0,1.5,0.2,2.1,0.5c0.6,0.3,1.1,0.8,1.4,1.4
		C241.3,81.2,241.4,81.8,241.4,82.6z M240,82.3c0-0.5-0.1-1-0.3-1.3c-0.2-0.4-0.5-0.7-0.9-0.9c-0.4-0.2-0.8-0.3-1.3-0.3
		c-0.7,0-1.3,0.2-1.8,0.7c-0.5,0.4-0.8,1.1-0.8,1.8H240z M242.7,82.9c0-0.8,0.2-1.6,0.5-2.2c0.3-0.6,0.8-1.1,1.4-1.5
		c0.6-0.3,1.3-0.5,2-0.5c0.7,0,1.3,0.2,1.9,0.5s0.9,0.7,1.2,1.2v-1.5h1.4V87h-1.4v-1.5c-0.3,0.5-0.7,0.9-1.2,1.2
		c-0.5,0.3-1.2,0.5-1.9,0.5c-0.7,0-1.4-0.2-2-0.5c-0.6-0.4-1.1-0.9-1.4-1.5C242.9,84.4,242.7,83.7,242.7,82.9z M249.7,82.9
		c0-0.6-0.1-1.2-0.4-1.6s-0.6-0.8-1-1c-0.4-0.3-0.9-0.4-1.4-0.4c-0.5,0-1,0.1-1.4,0.4c-0.4,0.2-0.8,0.6-1,1s-0.4,1-0.4,1.6
		c0,0.6,0.1,1.2,0.4,1.7c0.3,0.5,0.6,0.8,1,1.1c0.4,0.2,0.9,0.4,1.4,0.4c0.5,0,1-0.1,1.4-0.4c0.4-0.3,0.8-0.6,1-1.1
		C249.6,84,249.7,83.5,249.7,82.9z M254.7,80.1c0.2-0.5,0.6-0.8,1-1.1c0.5-0.3,1-0.4,1.6-0.4V80H257c-1.5,0-2.3,0.8-2.3,2.5V87h-1.4
		v-8.2h1.4V80.1z M263,78.6c1,0,1.8,0.3,2.4,0.9c0.6,0.6,0.9,1.5,0.9,2.6V87H265v-4.7c0-0.8-0.2-1.4-0.6-1.9c-0.4-0.4-1-0.7-1.7-0.7
		c-0.7,0-1.3,0.2-1.7,0.7c-0.4,0.5-0.6,1.1-0.6,2V87H259v-8.2h1.4v1.2c0.3-0.4,0.6-0.7,1.1-1C261.9,78.7,262.4,78.6,263,78.6z
		 M276.1,82.6c0,0.3,0,0.5,0,0.8h-6.6c0.1,0.8,0.3,1.4,0.8,1.9c0.5,0.4,1.1,0.7,1.8,0.7c0.6,0,1.1-0.1,1.5-0.4
		c0.4-0.3,0.7-0.6,0.8-1.1h1.5c-0.2,0.8-0.7,1.4-1.3,1.9c-0.7,0.5-1.5,0.7-2.5,0.7c-0.8,0-1.5-0.2-2.1-0.5c-0.6-0.3-1.1-0.8-1.4-1.5
		c-0.4-0.7-0.5-1.4-0.5-2.3s0.2-1.6,0.5-2.2c0.3-0.6,0.8-1.1,1.4-1.5c0.6-0.3,1.3-0.5,2.1-0.5c0.8,0,1.5,0.2,2.1,0.5
		c0.6,0.3,1.1,0.8,1.4,1.4C275.9,81.2,276.1,81.8,276.1,82.6z M274.6,82.3c0-0.5-0.1-1-0.3-1.3c-0.2-0.4-0.5-0.7-0.9-0.9
		c-0.4-0.2-0.8-0.3-1.3-0.3c-0.7,0-1.3,0.2-1.8,0.7c-0.5,0.4-0.8,1.1-0.8,1.8H274.6z M279.2,80.1c0.2-0.5,0.6-0.8,1-1.1
		c0.5-0.3,1-0.4,1.6-0.4V80h-0.4c-1.5,0-2.3,0.8-2.3,2.5V87h-1.4v-8.2h1.4V80.1z M286.4,87.1c-0.6,0-1.2-0.1-1.7-0.3
		c-0.5-0.2-0.9-0.5-1.2-0.9c-0.3-0.4-0.4-0.8-0.5-1.3h1.4c0,0.4,0.2,0.7,0.6,1c0.4,0.3,0.8,0.4,1.4,0.4c0.5,0,0.9-0.1,1.2-0.3
		c0.3-0.2,0.5-0.5,0.5-0.9c0-0.4-0.2-0.6-0.5-0.8c-0.3-0.2-0.8-0.4-1.5-0.5c-0.6-0.2-1.1-0.3-1.5-0.5c-0.4-0.2-0.7-0.4-1-0.7
		c-0.3-0.3-0.4-0.8-0.4-1.3c0-0.4,0.1-0.8,0.4-1.2c0.3-0.4,0.6-0.6,1.1-0.8c0.5-0.2,1-0.3,1.6-0.3c0.9,0,1.6,0.2,2.2,0.7
		s0.9,1.1,0.9,1.9h-1.4c0-0.4-0.2-0.8-0.5-1c-0.3-0.3-0.7-0.4-1.3-0.4c-0.5,0-0.9,0.1-1.2,0.3c-0.3,0.2-0.4,0.5-0.4,0.8
		c0,0.3,0.1,0.5,0.3,0.7c0.2,0.2,0.4,0.3,0.7,0.4c0.3,0.1,0.6,0.2,1.1,0.3c0.6,0.2,1.1,0.3,1.4,0.5c0.4,0.2,0.7,0.4,0.9,0.7
		c0.3,0.3,0.4,0.7,0.4,1.2c0,0.4-0.1,0.9-0.4,1.2c-0.3,0.4-0.6,0.6-1.1,0.9C287.5,87,287,87.1,286.4,87.1z"/>
</g>
<g>
	<path class="st5" d="M170.3,51.4h2.1v16.9h-2.9V54.4l-3,0.8l-0.6-2.4L170.3,51.4z"/>
	<path class="st5" d="M191.6,68.3h-3.6l-5.7-7.6l-2.6,2.7v4.9h-2.9V51.5h2.9V60l8-8.4h3.6l-7,7.2L191.6,68.3z"/>
	<path class="st5" d="M198.3,54h2.7v4.6h4.6v2.7h-4.6v4.6h-2.7v-4.6h-4.6v-2.7h4.6V54z"/>
</g>
</svg>
